static/images/upgrades/giropay.svg

<svg height="64" viewBox="0 0 110 64" width="110" xmlns="http://www.w3.org/2000/svg"><g fill="none" fill-rule="evenodd" transform="translate(9.833774 12.447711)"><path d="m.07383513 7.0105353c0-3.86377933 3.16697782-6.9964941 7.07160235-6.9964941h77.06836802c3.9063027 0 7.0715661 3.13271477 7.0715661 6.9964941v25.0029571c0 3.861531-3.1652634 6.9948251-7.0715661 6.9948251h-77.06836802c-3.90462453 0-7.07160235-3.1332941-7.07160235-6.9948251z" fill="#000268"/><path d="m2.97618967 7.24993139v24.52645011c0 2.4140187 1.97954813 4.3719153 4.42135685 4.3719153h40.37684178v-33.27028109h-40.37684178c-2.44180872 0-4.42135685 1.95786064-4.42135685 4.37191568zm55.23084013 12.14071611c0 1.5615512-.7768675 2.6347712-2.0630611 2.6347712-1.1362787 0-2.0834931-1.07322-2.0834931-2.5032488 0-1.4678241.8330539-2.5591069 2.0834931-2.5591069 1.3259618 0 2.0630611 1.129115 2.0630611 2.4275845zm-7.5519953 8.9560589h3.4054411v-5.3254364h.0380538c.6450852 1.1669461 1.9329933 1.5993823 3.1249476 1.5993823 2.9330012 0 4.5037021-2.4078162 4.5037021-5.3056691 0-2.3699841-1.4945933-4.9494397-4.2209102-4.9494397-1.5508168 0-2.9892237.6215949-3.6723626 1.9956918h-.0380538v-1.7681574h-3.140818zm15.7234642-7.0563432c0-.9399921.9074461-1.2962205 2.0636089-1.2962205.5105304 0 1.0034382.0355831 1.4384078.055896 0 1.1471778-.8137534 2.3140891-2.1016622 2.3140891-.7950003 0-1.4003545-.3946051-1.4003545-1.0737646zm6.8694415 3.1050396c-.1504998-.7706018-.1885525-1.5434873-.1885525-2.3140891v-3.6504267c0-2.9915441-2.1754714-4.0653435-4.6933501-4.0653435-1.4565771 0-2.7246017.2071857-3.9364392.6972223l.0579381 2.2966057c.9432006-.5278678 2.0431396-.7350545 3.1408176-.7350545 1.2282918 0 2.23173.3585142 2.2521613 1.6948159-.4349696-.0756642-1.0420381-.1332647-1.5905845-.1332647-1.8154413 0-5.0903037.3585143-5.0903037 3.3495138 0 2.1272512 1.740501 3.0852703 3.6899491 3.0852703 1.4003546 0 2.3475329-.5436467 3.1232323-1.7687368h.038054c0 .5098039.0556387 1.0156185.0761067 1.5434873zm1.532611 3.9513036c.7007238.1513275 1.4003539.2275354 2.1192475.2275354 3.123269 0 3.8603325-2.3903328 4.8257167-4.8557495l3.6161401-9.1254144h-3.4077395l-2.0250083 6.3969529h-.038054l-2.1198314-6.3969529h-3.6700645l3.9926257 10.0275744c-.2464545.8660333-.8892775 1.35607-1.7228791 1.35607-.4747386 0-.8892762-.0576004-1.3441307-.2071867z" fill="#fff"/><path d="m11.2959318 19.4104157c0-1.3363016.6632548-2.4473527 1.9312799-2.4473527 1.5326831 0 2.1755071 1.2228052 2.1755071 2.3140891 0 1.5056921-.9653841 2.5213116-2.1755071 2.5213116-1.0215705 0-1.9312799-.8643289-1.9312799-2.388048zm7.4003659-4.8173378h-3.0851793v1.7681574h-.0357916c-.7211918-1.2047424-1.8955232-1.9956918-3.3515169-1.9956918-3.06533135 0-4.44747966 2.1848147-4.44747966 5.1007314 0 2.8978529 1.68482527 4.9291279 4.38899486 4.9291279 1.3645625 0 2.5002934-.5278688 3.3134642-1.6750108h.0380528v.5278319c0 1.91836-1.0596233 2.8402894-3.0266937 2.8402894-1.4202381 0-2.2918937-.3009139-3.33166985-.8084329l-.17034687 2.6725665c.79332274.2828499 2.13745332.6215949 3.76663992.6215949 3.9744558 0 5.9415261-1.29905 5.9415261-5.3260179zm5.757535-4.0828629h-3.4071566v2.4834806h3.4071566zm-3.4054422 13.8851878h3.4054422v-9.8023249h-3.4054422zm12.8910156-9.9163639c-.3407308-.0553514-.7575312-.1134954-1.1539007-.1134954-1.4764245 0-2.3276482.7909494-2.9148324 2.033524h-.0380538v-1.8059896h-3.1033481v9.8023249h3.406025v-4.1381784c0-1.9200286.8909919-3.0672074 2.4798625-3.0672074.3986317 0 .775116 0 1.1539006.1112105zm5.8654926 7.7716293c-1.5707019 0-2.2135249-1.2984695-2.2135249-2.7465622 0-1.467824.642823-2.7662936 2.2135249-2.7662936 1.5724153 0 2.2157861 1.2984696 2.2157861 2.7662936 0 1.4480927-.6433708 2.7465622-2.2157861 2.7465622zm0 2.3699841c3.2555252 0 5.7353877-1.8799474 5.7353877-5.1165463 0-3.2563292-2.4798625-5.1385625-5.7353877-5.1385625-3.2549794 0-5.7331265 1.8822333-5.7331265 5.1385625 0 3.2365989 2.4781471 5.1165463 5.7331265 5.1165463z" fill="#ff0007"/></g></svg>

<?xml version="1.0" encoding="UTF-8" standalone="no"?>
<svg width="110px" height="64px" viewBox="0 0 110 64" version="1.1" xmlns="http://www.w3.org/2000/svg" xmlns:xlink="http://www.w3.org/1999/xlink">
  <!-- Generator: Sketch 41.2 (35397) - http://www.bohemiancoding.com/sketch -->
  <title>giropay</title>
  <desc>Created with Sketch.</desc>
  <defs></defs>
  <g id="Others" stroke="none" stroke-width="1" fill="none" fill-rule="evenodd">
    <g id="giropay">
      <g transform="translate(9.833774, 12.447711)" id="layer1">
        <g>
          <path d="M0.0738351316,7.0105353 C0.0738351316,3.14675597 3.24081295,0.0140412048 7.14543748,0.0140412048 L84.2138055,0.0140412048 C88.1201082,0.0140412048 91.2853716,3.14675597 91.2853716,7.0105353 L91.2853716,32.0134924 C91.2853716,35.8750234 88.1201082,39.0083175 84.2138055,39.0083175 L7.14543748,39.0083175 C3.24081295,39.0083175 0.0738351316,35.8750234 0.0738351316,32.0134924 L0.0738351316,7.0105353 L0.0738351316,7.0105353 Z" id="_92653320" fill="#000268"></path>
          <path d="M2.97618967,7.24993139 L2.97618967,31.7763815 C2.97618967,34.1904002 4.9557378,36.1482968 7.39754652,36.1482968 L47.7743883,36.1482968 L47.7743883,2.87801571 L7.39754652,2.87801571 C4.9557378,2.87801571 2.97618967,4.83587635 2.97618967,7.24993139 L2.97618967,7.24993139 L2.97618967,7.24993139 Z M58.2070298,19.3906475 C58.2070298,20.9521987 57.4301623,22.0254187 56.1439687,22.0254187 C55.00769,22.0254187 54.0604756,20.9521987 54.0604756,19.5221699 C54.0604756,18.0543458 54.8935295,16.963063 56.1439687,16.963063 C57.4699305,16.963063 58.2070298,18.092178 58.2070298,19.3906475 L58.2070298,19.3906475 Z M50.6550345,28.3467064 L54.0604756,28.3467064 L54.0604756,23.02127 L54.0985294,23.02127 C54.7436146,24.1882161 56.0315227,24.6206523 57.223477,24.6206523 C60.1564782,24.6206523 61.7271791,22.2128361 61.7271791,19.3149832 C61.7271791,16.9449991 60.2325858,14.3655435 57.5062689,14.3655435 C55.9554521,14.3655435 54.5170452,14.9871384 53.8339063,16.3612353 L53.7958525,16.3612353 L53.7958525,14.5930779 L50.6550345,14.5930779 L50.6550345,28.3467064 L50.6550345,28.3467064 Z M66.3784987,21.2903632 C66.3784987,20.3503711 67.2859448,19.9941427 68.4421076,19.9941427 C68.952638,19.9941427 69.4455458,20.0297258 69.8805154,20.0500387 C69.8805154,21.1972165 69.066762,22.3641278 67.7788532,22.3641278 C66.9838529,22.3641278 66.3784987,21.9695227 66.3784987,21.2903632 L66.3784987,21.2903632 Z M73.2479402,24.3954028 C73.0974404,23.624801 73.0593877,22.8519155 73.0593877,22.0813137 L73.0593877,18.430887 C73.0593877,15.4393429 70.8839163,14.3655435 68.3660376,14.3655435 C66.9094605,14.3655435 65.6414359,14.5727292 64.4295984,15.0627658 L64.4875365,17.3593715 C65.4307371,16.8315037 66.5306761,16.624317 67.6283541,16.624317 C68.8566459,16.624317 69.8600841,16.9828312 69.8805154,18.3191329 C69.4455458,18.2434687 68.8384773,18.1858682 68.2899309,18.1858682 C66.4744896,18.1858682 63.1996272,18.5443825 63.1996272,21.535382 C63.1996272,23.6626332 64.9401282,24.6206523 66.8895763,24.6206523 C68.2899309,24.6206523 69.2371092,24.0770056 70.0128086,22.8519155 L70.0508626,22.8519155 C70.0508626,23.3617194 70.1065013,23.867534 70.1269693,24.3954028 L73.2479402,24.3954028 L73.2479402,24.3954028 Z M74.7805512,28.3467064 C75.481275,28.4980339 76.1809051,28.5742418 76.8997987,28.5742418 C80.0230677,28.5742418 80.7601312,26.183909 81.7255154,23.7184923 L85.3416555,14.5930779 L81.933916,14.5930779 L79.9089077,20.9900308 L79.8708537,20.9900308 L77.7510223,14.5930779 L74.0809578,14.5930779 L78.0735835,24.6206523 C77.827129,25.4866856 77.184306,25.9767223 76.3507044,25.9767223 C75.8759658,25.9767223 75.4614282,25.9191219 75.0065737,25.7695356 L74.7805512,28.3467064 L74.7805512,28.3467064 Z" id="_92186184" fill="#FFFFFF"></path>
          <path d="M11.2959318,19.4104157 C11.2959318,18.0741141 11.9591866,16.963063 13.2272117,16.963063 C14.7598948,16.963063 15.4027188,18.1858682 15.4027188,19.2771521 C15.4027188,20.7828442 14.4373347,21.7984637 13.2272117,21.7984637 C12.2056412,21.7984637 11.2959318,20.9341348 11.2959318,19.4104157 L11.2959318,19.4104157 Z M18.6962977,14.5930779 L15.6111184,14.5930779 L15.6111184,16.3612353 L15.5753268,16.3612353 C14.854135,15.1564929 13.6798036,14.3655435 12.2238099,14.3655435 C9.15847855,14.3655435 7.77633024,16.5503582 7.77633024,19.4662749 C7.77633024,22.3641278 9.46115551,24.3954028 12.1653251,24.3954028 C13.5298876,24.3954028 14.6656185,23.867534 15.4787893,22.720392 L15.5168421,22.720392 L15.5168421,23.2482239 C15.5168421,25.1665839 14.4572188,26.0885133 12.4901484,26.0885133 C11.0699103,26.0885133 10.1982547,25.7875994 9.15847855,25.2800804 L8.98813168,27.9526469 C9.78145442,28.2354968 11.125585,28.5742418 12.7547716,28.5742418 C16.7292274,28.5742418 18.6962977,27.2751918 18.6962977,23.2482239 L18.6962977,14.5930779 L18.6962977,14.5930779 Z M24.4538327,10.510215 L21.0466761,10.510215 L21.0466761,12.9936956 L24.4538327,12.9936956 L24.4538327,10.510215 L24.4538327,10.510215 Z M21.0483905,24.3954028 L24.4538327,24.3954028 L24.4538327,14.5930779 L21.0483905,14.5930779 L21.0483905,24.3954028 L21.0483905,24.3954028 Z M33.9394061,14.4790389 C33.5986753,14.4236875 33.1818749,14.3655435 32.7855054,14.3655435 C31.3090809,14.3655435 30.4578572,15.1564929 29.870673,16.3990675 L29.8326192,16.3990675 L29.8326192,14.5930779 L26.7292711,14.5930779 L26.7292711,24.3954028 L30.1352961,24.3954028 L30.1352961,20.2572244 C30.1352961,18.3371958 31.026288,17.190017 32.6151586,17.190017 C33.0137903,17.190017 33.3902746,17.190017 33.7690592,17.3012275 L33.9394061,14.4790389 L33.9394061,14.4790389 Z M39.8048987,22.2506682 C38.2341968,22.2506682 37.5913738,20.9521987 37.5913738,19.504106 C37.5913738,18.036282 38.2341968,16.7378124 39.8048987,16.7378124 C41.377314,16.7378124 42.0206848,18.036282 42.0206848,19.504106 C42.0206848,20.9521987 41.377314,22.2506682 39.8048987,22.2506682 L39.8048987,22.2506682 Z M39.8048987,24.6206523 C43.0604239,24.6206523 45.5402864,22.7407049 45.5402864,19.504106 C45.5402864,16.2477768 43.0604239,14.3655435 39.8048987,14.3655435 C36.5499193,14.3655435 34.0717722,16.2477768 34.0717722,19.504106 C34.0717722,22.7407049 36.5499193,24.6206523 39.8048987,24.6206523 L39.8048987,24.6206523 Z" id="_47303032" fill="#FF0007"></path>
        </g>
      </g>
    </g>
  </g>
</svg>
